X: 9
T: The Wind That Shakes The Barley
R: reel
M: 4/4
L: 1/8
K: Dmaj
f2 fd g2 ge | f2 fd Bcde | f2 fd g2 gb | afed B2 d>e |f2 fd g2 ge | f2 fd Bcde | fafd gbge | afed B2 d |]


Tune 116	Setting 12707

